X:1
T:Alma Redemptoris - Soriano
T:#
%%score [ 1 2 3 4 ]
L:1/8
Q:1/4=130
M:none
K:F
V:1 treble nm="S" snm="S"
V:2 treble nm="A" snm="A"
V:3 treble-8 nm="T" snm="T"
V:4 bass nm="B" snm="B"
V:1
 x16 ||"^Alma Redemptoris Mater""^Francesco Soriano\n(1549-1621)"[Q:1/4=200] c6 c2 c4 d4 | c8 c8 || %3
w: |Re- dem- pto- ris|Ma- ter,|
 A16 || B8 A4 c4- | c4 c4 c8 |[Q:1/4=200][Q:1/4=200][Q:1/4=200][Q:1/4=200] c4 A4 A4 c4- | %7
w: quae~pervia|coe- li por\-|* ta ma-|nes et stel- la|
 c4 =B4 c4 c4 | c8 d4 d4 | c8 c16 || c6 c2 c4 c4 | d4 B4 c6 c2 | c8 d6 d2 | d4 d4 c8 | c4 c4 d8 | %15
w: * ma- ris, suc-|cur- re ca-|den- ti,|sur- ge- re qui|cu- rat po- pu-|lo: tu quae|ge- nu- i-|sti, na- tu-|
 d4 c4 c8 | =B16 || c12 c4 | c6 c2 c4 c4 | d8 d8 | d6 d2 d4 d4 | d4 c4 =B6 B2 | =B8 c8- | %23
w: ra mi- ran-|te,|tu- um|san- ctum Ge- ni-|to- rem,|Vir- go pri- us|ac pos- te- ri-|us, Ga\-|
 c4 c4 c8 | c4 c8 =B4 | c16 || c6 c2 c4 c4 | c8 c4 A4- | A4 A4 B8- | B4 A4 d8 | d8 c8- | c8 c16 |] %32
w: * bri- e-|lis ab o-|re|su- mens il- lud|A- ve, pec\-|* ca- to\-|* rum mi-|se- re\-|* re.|
V:2
 x16 || A6 A2 A4 B4 | G8 A8 || F16 || F8 F4 A4- | A4 A4 G8 | G4 F4 F4 G4 | G8 G4 G4 | A8 A4 B4 | %9
w: |Re- dem- pto- ris|Ma- ter,|quae~pervia|coe- li por\-|* ta ma-|nes et stel- la|ma- ris, suc-|cur- re ca-|
 G8 A16 || G6 G2 G4 A4 | A4 G4 A6 A2 | A8 B6 B2 | B4 B4 A8 | G4 G4 B8 | B4 G8 ^F4 | G16 || G12 G4 | %18
w: den- ti,|sur- ge- re qui|cu- rat po- pu-|lo: tu quae|ge- nu- i-|sti, na- tu-|ra mi- ran-|te,|tu- um|
 A6 A2 A4 A4 | B8 B8 | B6 B2 B4 B4 | B4 G4 G6 G2 | G8 G8- | G4 G4 A8 | G4 A4 G8 | G16 || %26
w: san- ctum Ge- ni-|to- rem,|Vir- go pri- us|ac pos- te- ri-|us, Ga\-|* bri- e-|lis ab o-|re|
 A6 A2 A4 A4 | G8 G4 F4- | F4 F4 G8- | G4 F4 A8 | B8 G8- | G8 A16 |] %32
w: su- mens il- lud|A- ve, pec\-|* ca- to\-|* rum mi-|se- re\-|* re.|
V:3
 F2 A2 B2 c2 A2 G2 A4 || f6 f2 f4 f4- | f4 e4 f8 || c16 || d8 c4 f4- | f4 f4 e8 | e4 c4 d4 e4 | %7
w: Al\- * * * ma * *|Re- dem- pto- ris|* Ma- ter,|quae~pervia|coe- li por\-|* ta ma-|nes et stel- la|
 d8 e4 e4 | f8 f4 f4- | f4 e4 f16 || e6 e2 e4 f4 | f4 d4 f6 f2 | f8 f6 f2 | f4 f4 f8 | e4 e4 f8 | %15
w: ma- ris, suc-|cur- re ca\-|* den- ti,|sur- ge- re qui|cu- rat po- pu-|lo: tu quae|ge- nu- i-|sti, na- tu-|
 f4 e4 c8 | d16 || e12 e4 | f6 f2 f4 f4 | f8 f8 | f6 f2 f4 f4 | f4 e4 d6 d2 | d8 e8- | e4 e4 f8 | %24
w: ra mi- ran-|te,|tu- um|san- ctum Ge- ni-|to- rem,|Vir- go pri- us|ac pos- te- ri-|us, Ga\-|* bri- e-|
 g4 f4 d8 | e16 || f6 f2 f4 f4 | e8 e4 c4- | c4 c4 _e8- | e4 c4 f8 | f4 (f8 e2 d2 | e8) f16 |] %32
w: lis ab o-|re|su- mens il- lud|A- ve, pec\-|* ca- to\-|* rum mi-|se- re\- * *|* re.|
V:4
 x16 || F,6 F,2 F,4 B,,4 | C,8 F,8 || F,16 || B,8 F,4 F,4- | F,4 F,4 C8 | C4 F,4 D,4 C,4 | %7
w: |Re- dem- pto- ris|Ma- ter,|quae~pervia|coe- li por\-|* ta ma-|nes et stel- la|
 G,8 C,4 C,4 | F,8 D,4 B,,4 | C,8 F,16 || C6 C2 C4 F,4 | B,,4 G,4 F,6 F,2 | F,8 B,,6 B,,2 | %13
w: ma- ris, suc-|cur- re ca-|den- ti,|sur- ge- re qui|cu- rat po- pu-|lo: tu quae|
 B,,4 B,,4 F,8 | C,4 C4 B,8 | B,4 C4 A,8 | G,16 || C,12 C,4 | F,6 F,2 F,4 F,4 | B,,8 B,,8 | %20
w: ge- nu- i-|sti, na- tu-|ra mi- ran-|te,|tu- um|san- ctum Ge- ni-|to- rem,|
 B,6 B,2 B,4 B,4 | B,4 C4 G,6 G,2 | G,8 C,8- | C,4 C,4 F,8 | E,4 F,4 G,8 | C,16 || %26
w: Vir- go pri- us|ac pos- te- ri-|us, Ga\-|* bri- e-|lis ab o-|re|
 F,6 F,2 F,4 F,4 | C8 C4 F,4- | F,4 F,4 _E,8- | E,4 F,4 D,8 | B,,8 C,8- | C,8 F,16 |] %32
w: su- mens il- lud|A- ve, pec\-|* ca- to\-|* rum mi-|se- re\-|* re.|

